Catalina-dark/actions/24/edit.svg

<?xml version="1.0" encoding="UTF-8" standalone="no"?>
<svg
   xmlns:svg="http://www.w3.org/2000/svg"
   xmlns="http://www.w3.org/2000/svg"
   xmlns:xlink="http://www.w3.org/1999/xlink"
   xmlns:sodipodi="http://sodipodi.sourceforge.net/DTD/sodipodi-0.dtd"
   xmlns:inkscape="http://www.inkscape.org/namespaces/inkscape"
   width="24"
   height="24"
   viewBox="0 0 6.3499999 6.3500002"
   version="1.1"
   id="svg6"
   inkscape:version="1.1-dev (1:0.92.0+devel+202004260039+9758c7a)"
   sodipodi:docname="draw-calligraphic.svg">
  <defs
     id="defs2">
    <linearGradient
       id="linearGradient882"
       inkscape:collect="always">
      <stop
         id="stop878"
         offset="0"
         style="stop-color:#86939d;stop-opacity:1;" />
      <stop
         id="stop880"
         offset="1"
         style="stop-color:#bdc4ca;stop-opacity:1" />
    </linearGradient>
    <linearGradient
       id="linearGradient868"
       inkscape:collect="always">
      <stop
         id="stop864"
         offset="0"
         style="stop-color:#e3e3e3;stop-opacity:1;" />
      <stop
         id="stop866"
         offset="1"
         style="stop-color:#bdc4ca;stop-opacity:1" />
    </linearGradient>
    <linearGradient
       inkscape:collect="always"
       id="linearGradient1012">
      <stop
         style="stop-color:#032134;stop-opacity:1;"
         offset="0"
         id="stop1008" />
      <stop
         style="stop-color:#032134;stop-opacity:0;"
         offset="1"
         id="stop1010" />
    </linearGradient>
    <linearGradient
       inkscape:collect="always"
       id="linearGradient991">
      <stop
         style="stop-color:#000000;stop-opacity:1;"
         offset="0"
         id="stop987" />
      <stop
         style="stop-color:#000000;stop-opacity:0;"
         offset="1"
         id="stop989" />
    </linearGradient>
    <linearGradient
       id="linearGradient979"
       inkscape:collect="always">
      <stop
         id="stop975"
         offset="0"
         style="stop-color:#000000;stop-opacity:0.34136817" />
      <stop
         id="stop977"
         offset="1"
         style="stop-color:#737373;stop-opacity:0;" />
    </linearGradient>
    <linearGradient
       inkscape:collect="always"
       id="linearGradient967">
      <stop
         style="stop-color:#090909;stop-opacity:1"
         offset="0"
         id="stop963" />
      <stop
         style="stop-color:#737373;stop-opacity:0;"
         offset="1"
         id="stop965" />
    </linearGradient>
    <linearGradient
       inkscape:collect="always"
       id="linearGradient959">
      <stop
         style="stop-color:#ffffff;stop-opacity:1"
         offset="0"
         id="stop955" />
      <stop
         style="stop-color:#c7c7c7;stop-opacity:1"
         offset="1"
         id="stop957" />
    </linearGradient>
    <linearGradient
       id="linearGradient937"
       inkscape:collect="always">
      <stop
         id="stop927"
         offset="0"
         style="stop-color:#07466e;stop-opacity:1" />
      <stop
         style="stop-color:#9cc1dc;stop-opacity:1"
         offset="0.37499988"
         id="stop929" />
      <stop
         id="stop931"
         offset="0.74999994"
         style="stop-color:#166698;stop-opacity:1" />
      <stop
         id="stop935"
         offset="1"
         style="stop-color:#005e9c;stop-opacity:1" />
    </linearGradient>
    <linearGradient
       inkscape:collect="always"
       id="linearGradient878">
      <stop
         style="stop-color:#07466e;stop-opacity:1"
         offset="0"
         id="stop874" />
      <stop
         id="stop884"
         offset="0.37499988"
         style="stop-color:#9cc1dc;stop-opacity:1" />
      <stop
         style="stop-color:#1872a9;stop-opacity:1"
         offset="0.74999994"
         id="stop886" />
      <stop
         style="stop-color:#005e9c;stop-opacity:1"
         offset="1"
         id="stop876" />
    </linearGradient>
    <linearGradient
       inkscape:collect="always"
       xlink:href="#linearGradient878"
       id="linearGradient880"
       x1="23.018751"
       y1="1.3229167"
       x2="24.077084"
       y2="2.3812501"
       gradientUnits="userSpaceOnUse"
       gradientTransform="translate(-19.380731,0.19843758)" />
    <linearGradient
       inkscape:collect="always"
       xlink:href="#linearGradient937"
       id="linearGradient908"
       x1="19.579166"
       y1="2.9104168"
       x2="20.372917"
       y2="3.7041667"
       gradientUnits="userSpaceOnUse"
       gradientTransform="translate(-17.528647,0.59531254)" />
    <linearGradient
       inkscape:collect="always"
       xlink:href="#linearGradient959"
       id="linearGradient961"
       x1="21.166668"
       y1="5.291667"
       x2="22.225"
       y2="6.3500004"
       gradientUnits="userSpaceOnUse"
       gradientTransform="translate(-20.174481,-0.46302076)" />
    <linearGradient
       inkscape:collect="always"
       xlink:href="#linearGradient967"
       id="linearGradient969"
       x1="22.489584"
       y1="4.4979167"
       x2="20.902084"
       y2="6.0854168"
       gradientUnits="userSpaceOnUse"
       gradientTransform="translate(-20.174481,-0.46302076)" />
    <radialGradient
       inkscape:collect="always"
       xlink:href="#linearGradient979"
       id="radialGradient973"
       cx="21.43125"
       cy="5.5121527"
       fx="21.43125"
       fy="5.5121527"
       r="0.66145849"
       gradientTransform="matrix(0.83204977,0.55470098,-0.80000122,1.1999994,-12.165368,-13.409286)"
       gradientUnits="userSpaceOnUse" />
    <linearGradient
       inkscape:collect="always"
       xlink:href="#linearGradient991"
       id="linearGradient993"
       x1="24.077084"
       y1="2.3812501"
       x2="24.870834"
       y2="3.1750002"
       gradientUnits="userSpaceOnUse"
       gradientTransform="translate(-20.372918,-0.52916656)" />
    <linearGradient
       inkscape:collect="always"
       xlink:href="#linearGradient1012"
       id="linearGradient1014"
       x1="23.547916"
       y1="3.1750002"
       x2="23.018751"
       y2="3.7041667"
       gradientUnits="userSpaceOnUse"
       gradientTransform="translate(-20.174481,-0.46302076)" />
    <linearGradient
       gradientUnits="userSpaceOnUse"
       y2="5.5427862"
       x2="4.6304168"
       y1="5.5427862"
       x1="0.66125003"
       id="linearGradient870"
       xlink:href="#linearGradient868"
       inkscape:collect="always" />
    <linearGradient
       gradientUnits="userSpaceOnUse"
       y2="5.5429945"
       x2="4.6551751"
       y1="5.5429945"
       x1="0.63710897"
       id="linearGradient884"
       xlink:href="#linearGradient882"
       inkscape:collect="always" />
  </defs>
  <sodipodi:namedview
     id="base"
     pagecolor="#ffffff"
     bordercolor="#666666"
     borderopacity="1.0"
     inkscape:pageopacity="0.0"
     inkscape:pageshadow="2"
     inkscape:zoom="4"
     inkscape:cx="7.6082288"
     inkscape:cy="20.499433"
     inkscape:document-units="mm"
     inkscape:current-layer="layer1"
     showgrid="true"
     units="px"
     inkscape:window-width="1920"
     inkscape:window-height="1024"
     inkscape:window-x="0"
     inkscape:window-y="30"
     inkscape:window-maximized="1">
    <inkscape:grid
       type="xygrid"
       id="grid864"
       spacingx="0.26458334"
       spacingy="0.26458334" />
  </sodipodi:namedview>
  <g
     inkscape:label="Layer 1"
     inkscape:groupmode="layer"
     id="layer1">
    <g
       id="g872">
      <path
         id="path874"
         d="m 0.79375002,5.8208335 c 0,0 1.58750008,0 2.11666658,-0.2645833 0.3252451,-0.1626226 0.707893,-0.3616498 1.0583335,-0.2645834 0.2404002,0.066587 0.5291667,0.5291667 0.5291667,0.5291667"
         style="color:#000000;fill:none;stroke-width:0.265;stroke-linecap:round" />
      <path
         id="path876"
         d="M 4.0039062,5.1640625 C 3.5846522,5.0479359 3.1753103,5.2756261 2.8515625,5.4375 2.6343841,5.5460892 2.1021846,5.6235605 1.6445312,5.65625 1.1868779,5.6889395 0.79296875,5.6875 0.79296875,5.6875 A 0.13249999,0.13249999 0 0 0 0.66210937,5.8203125 0.13249999,0.13249999 0 0 0 0.79296875,5.953125 c 0,0 0.40270635,2.531e-4 0.87109375,-0.033203 C 2.1324499,5.8864656 2.6567624,5.829822 2.96875,5.6738281 3.2954918,5.5104572 3.6519675,5.3419159 3.9335938,5.4199219 3.99088,5.4357892 4.1247177,5.549633 4.2207031,5.6660156 4.3166886,5.7823982 4.3847656,5.890625 4.3847656,5.890625 A 0.13249999,0.13249999 0 0 0 4.5683594,5.9335937 0.13249999,0.13249999 0 0 0 4.609375,5.75 c 0,0 -0.075096,-0.1223525 -0.1835938,-0.2539063 C 4.3172836,5.36454 4.18702,5.2147821 4.0039062,5.1640625 Z"
         style="color:#000000;fill:url(#linearGradient870);stroke-width:0.05;stroke-linecap:round;stroke-miterlimit:4;stroke-dasharray:none;stroke:url(#linearGradient884);stroke-opacity:1" />
    </g>
    <path
       style="fill:url(#linearGradient961);fill-opacity:1;stroke:#9aa6ad;stroke-width:0.05;stroke-linecap:butt;stroke-linejoin:miter;stroke-opacity:1;stroke-miterlimit:4;stroke-dasharray:none"
       d="M 1.5213538,4.2994793 0.72760376,4.828646 0.46302076,5.8869794 1.5213538,5.6223962 2.0505208,4.5640627"
       id="path947"
       sodipodi:nodetypes="ccccc" />
    <path
       style="fill:url(#linearGradient969);fill-opacity:1;stroke:none;stroke-width:0.264583px;stroke-linecap:butt;stroke-linejoin:miter;stroke-opacity:1"
       d="M 0.72760376,5.6223961 0.99218676,5.0932294 2.0505208,4.034896 1.2567708,5.3578127 Z"
       id="path953" />
    <path
       id="path868"
       d="m 3.1088538,2.4473959 -1.852085,1.8520832 c 1e-6,0.2645835 0.264584,0.5291668 0.66146,0.6614585 l 1.5875,-1.5875"
       style="fill:url(#linearGradient908);fill-opacity:1;stroke:none;stroke-width:0.05;stroke-linecap:butt;stroke-linejoin:miter;stroke-miterlimit:4;stroke-dasharray:none;stroke-opacity:1"
       sodipodi:nodetypes="cccc" />
    <path
       style="fill:#cbcbcb;fill-opacity:1;stroke:#b9c6d2;stroke-width:0.05;stroke-linecap:butt;stroke-linejoin:miter;stroke-miterlimit:4;stroke-dasharray:none;stroke-opacity:1"
       d="M 3.7041668,2.9104167 4.2333328,3.175 5.2255208,2.1828126 4.7624998,1.5875001 5.0270828,1.3229168 5.5562498,2.1166667 4.2333328,3.4395834 3.4395828,3.175 Z"
       id="path983"
       sodipodi:nodetypes="ccccccccc" />
    <path
       sodipodi:nodetypes="ccccccccc"
       id="path985"
       d="M 3.7041668,2.9104167 4.2333328,3.175 5.2255208,2.1828126 4.7624998,1.5875001 5.0270828,1.3229168 5.5562498,2.1166667 4.2333328,3.4395834 3.4395828,3.175 Z"
       style="fill:url(#linearGradient993);fill-opacity:1;stroke:none;stroke-width:0.05;stroke-linecap:butt;stroke-linejoin:miter;stroke-miterlimit:4;stroke-dasharray:none;stroke-opacity:1" />
    <path
       sodipodi:nodetypes="cccc"
       style="fill:url(#linearGradient1014);fill-opacity:1;stroke:none;stroke-width:0.05;stroke-linecap:butt;stroke-linejoin:miter;stroke-miterlimit:4;stroke-dasharray:none;stroke-opacity:1"
       d="m 3.1088538,2.4473959 -1.852085,1.8520832 c 1e-6,0.2645835 0.264584,0.5291668 0.66146,0.6614585 l 1.5875,-1.5875"
       id="path1006" />
    <path
       id="path872"
       d="m 2.8442698,2.5796876 1.5875,-1.58749966 c 0.529167,-0.52916683 1.5875,0.13229146 0.79375,0.92604136 l -1.5875,1.5874999 C 3.3734368,3.3734377 2.8442698,2.9765627 2.8442698,2.5796876 Z"
       style="fill:url(#linearGradient880);fill-opacity:1;stroke:none;stroke-width:0.2;stroke-linecap:butt;stroke-linejoin:miter;stroke-miterlimit:4;stroke-dasharray:none;stroke-opacity:1"
       sodipodi:nodetypes="ccccc" />
    <path
       id="path971"
       d="M 0.72760376,5.6223961 0.99218676,5.0932294 2.0505208,4.034896 1.2567708,5.3578127 Z"
       style="fill:url(#radialGradient973);fill-opacity:1;stroke:none;stroke-width:0.264583px;stroke-linecap:butt;stroke-linejoin:miter;stroke-opacity:1" />
  </g>
</svg>

<svg width="24" height="24" version="1.1" viewBox="0 0 6.35 6.35" xmlns="http://www.w3.org/2000/svg">
<defs>
<linearGradient id="linearGradient880" x1="23.019" x2="24.077" y1="1.3229" y2="2.3813" gradientTransform="translate(-19.381 .19844)" gradientUnits="userSpaceOnUse"/>
<linearGradient id="linearGradient908" x1="19.579" x2="20.373" y1="2.9104" y2="3.7042" gradientTransform="translate(-17.529 .59531)" gradientUnits="userSpaceOnUse"/>
<linearGradient id="linearGradient961" x1="21.167" x2="22.225" y1="5.2917" y2="6.35" gradientTransform="translate(-20.174 -.46302)" gradientUnits="userSpaceOnUse"/>
<linearGradient id="linearGradient969" x1="22.49" x2="20.902" y1="4.4979" y2="6.0854" gradientTransform="translate(-20.174 -.46302)" gradientUnits="userSpaceOnUse"/>
<radialGradient id="radialGradient973" cx="21.431" cy="5.5122" r=".66146" gradientTransform="matrix(.83205 .5547 -.8 1.2 -12.165 -13.409)" gradientUnits="userSpaceOnUse"/>
<linearGradient id="linearGradient993" x1="24.077" x2="24.871" y1="2.3813" y2="3.175" gradientTransform="translate(-20.373 -.52917)" gradientUnits="userSpaceOnUse"/>
<linearGradient id="linearGradient1014" x1="23.548" x2="23.019" y1="3.175" y2="3.7042" gradientTransform="translate(-20.174 -.46302)" gradientUnits="userSpaceOnUse"/>
<linearGradient id="linearGradient870" x1=".66125" x2="4.6304" y1="5.5428" y2="5.5428" gradientUnits="userSpaceOnUse"/>
<linearGradient id="linearGradient884" x1=".63711" x2="4.6552" y1="5.543" y2="5.543" gradientUnits="userSpaceOnUse"/>
</defs>
<g stroke-linecap="round">
<path d="m0.79375 5.8208s1.5875 0 2.1167-0.26458c0.32525-0.16262 0.70789-0.36165 1.0583-0.26458 0.2404 0.066587 0.52917 0.52917 0.52917 0.52917" color="#000000" fill="none" stroke-width=".265"/>
<path d="m4.0039 5.1641c-0.41925-0.11613-0.8286 0.11156-1.1523 0.27344-0.21718 0.10859-0.74938 0.18606-1.207 0.21875-0.45765 0.03269-0.85156 0.03125-0.85156 0.03125a0.1325 0.1325 0 0 0-0.13086 0.13281 0.1325 0.1325 0 0 0 0.13086 0.13281s0.40271 2.531e-4 0.87109-0.033203c0.46839-0.033456 0.9927-0.0901 1.3047-0.24609 0.32674-0.16337 0.68322-0.33191 0.96484-0.25391 0.057286 0.015867 0.19112 0.12971 0.28711 0.24609 0.095986 0.11638 0.16406 0.22461 0.16406 0.22461a0.1325 0.1325 0 0 0 0.18359 0.042969 0.1325 0.1325 0 0 0 0.041016-0.18359s-0.075096-0.12235-0.18359-0.25391c-0.1085-0.13155-0.23876-0.28131-0.42188-0.33203z" color="#000000" fill="url(#linearGradient870)" stroke="url(#linearGradient884)" stroke-width=".05"/>
</g>
<path d="m1.5214 4.2995-0.79375 0.52917-0.26458 1.0583 1.0583-0.26458 0.52917-1.0583" fill="url(#linearGradient961)" stroke="#9aa6ad" stroke-width=".05"/>
<path d="m0.7276 5.6224 0.26458-0.52917 1.0583-1.0583-0.79375 1.3229z" fill="url(#linearGradient969)"/>
<path d="m3.1089 2.4474-1.8521 1.8521c1e-6 0.26458 0.26458 0.52917 0.66146 0.66146l1.5875-1.5875" fill="url(#linearGradient908)"/>
<path d="m3.7042 2.9104 0.52917 0.26458 0.99219-0.99219-0.46302-0.59531 0.26458-0.26458 0.52917 0.79375-1.3229 1.3229-0.79375-0.26458z" fill="#cbcbcb" stroke="#b9c6d2" stroke-width=".05"/>
<path d="m3.7042 2.9104 0.52917 0.26458 0.99219-0.99219-0.46302-0.59531 0.26458-0.26458 0.52917 0.79375-1.3229 1.3229-0.79375-0.26458z" fill="url(#linearGradient993)"/>
<path d="m3.1089 2.4474-1.8521 1.8521c1e-6 0.26458 0.26458 0.52917 0.66146 0.66146l1.5875-1.5875" fill="url(#linearGradient1014)"/>
<path d="m2.8443 2.5797 1.5875-1.5875c0.52917-0.52917 1.5875 0.13229 0.79375 0.92604l-1.5875 1.5875c-0.26458-0.13229-0.79375-0.52917-0.79375-0.92604z" fill="url(#linearGradient880)"/>
<path d="m0.7276 5.6224 0.26458-0.52917 1.0583-1.0583-0.79375 1.3229z" fill="url(#radialGradient973)"/>
</svg>
